!!!!SEGMENT: pl-wn--sd-xvi-o-267_bazylik-cyprian--kancjonal-zamoyskich-piesn-o-niebezpieczenstwie-zywota-czlowieczego-wspominajac-poczatek-zywota-naszego.krn
!!!cenid: 15xx:823
!!!COM: Bazylik, Cyprian
!!!COM-rismID: pe40000234
!!!CDT: ~1535-~1600
!!!CNT: Polish
!!!GTL: Kancjonał Zamoyskich
!!!OTL: Pieśń o niebezpieczeństwie żywota człowieczego/Wspominając początek żywota naszego
!!!PDT: 1558
!!!AGN:
!!!SMS-siglum: PL-Wn
!!!SMS-shelfmark: SD XVI.O.267
!!!SMS-shelfwork: G
!!!SMS-variant:
!!!SMS-altvar:
!!!NIFC-rismSourceID: 990004244
!!!NIFC-islandoraID:
!!!URL-pdf-islandora:
!!!URL-scan: https://polona.pl/item/pyesn-o-nyebespieczenstwye-zywota-czlowyeczego,MTE3MTQ4Ng/3 @EN{Scan on Polona} @PL{Skany w portalu Polona}
!!!ONB-nifc: UWAGA: proszę zapisywać tylko teksty występujące bezpośrednio pod nutami
!!!AIN: 1 alto 1 bass 1 soprn 1 tenor
!!!key: a:aeo
**kern	**text	**mod-text	**kern	**text	**mod-text	**kern	**text	**mod-text	**kern	**text	**mod-text
*part4	*part4	*part4	*part3	*part3	*part3	*part2	*part2	*part2	*part1	*part1	*part1
*staff4	*staff4	*staff4	*staff3	*staff3	*staff3	*staff2	*staff2	*staff2	*staff1	*staff1	*staff1
*I"BAS.	*	*	*I"TENOR	*	*	*I"ALT.	*	*	*I"DISCANT.	*	*
*mI"Basso	*	*	*mI"Tenore	*	*	*mI"Alto	*	*	*mI"Soprano	*	*
*I'B	*	*	*I'T	*	*	*I'A	*	*	*I'S	*	*
*Ibass	*	*	*Itenor	*	*	*Ialto	*	*	*Isoprn	*	*
*ICvox	*	*	*ICvox	*	*	*ICvox	*	*	*ICvox	*	*
*clefF4	*	*	*clefC4	*	*	*clefC3	*	*	*clefC1	*	*
*	*	*	*mclefGv2	*	*	*mclefG2	*	*	*mclefG2	*	*
*k[]	*	*	*k[]	*	*	*k[]	*	*	*k[]	*	*
*a:aeo	*	*	*a:aeo	*	*	*a:aeo	*	*	*a:aeo	*	*
!	!	!	!	!	!	!LO:MO:mod=!LO&colon;TS&colon;brack	!	!	!	!	!
!	!	!	!	!	!	!null	!	!	!	!	!
*M2/1	*	*	*M2/1	*	*	*M2/1	*	*	*M2/1	*	*
*met(C|) 	*	*	*met(C|) 	*	*	*met()	*	*	*met(C|) 	*	*
*mmet(c|)	*	*	*mmet(c|)	*	*	*mmet(c|)	*	*	*mmet(c|)	*	*
=1-	=1-	=1-	=1-	=1-	=1-	=1-	=1-	=1-	=1-	=1-	=1-
*xywh-#6:2775,295,2277,1088	*	*	*xywh-#6:716,337,1995,993	*	*	*xywh-#5:2761,302,2251,1060	*	*	*xywh-#5:688,396,2011,1042	*	*
1AA	Wſpo-	Wspo-	1E	Wſpo-	Wspo-	1A	Wſpo-	Wspo-	1e	Wſpo-	Wspo-
2E\	-mi-	-mi-	2G/	-mi-	-mi-	2B/	-my-	-mi-	2e/	-mi-	-mi-
2E\	-ná-	-na-	2G/	-ná-	-na-	2c/	-na-	-na-	2g/	-na-	-na-
=2-	=2-	=2-	=2-	=2-	=2-	=2-	=2-	=2-	=2-	=2-	=2-
2D\	-yąc	-jąc	2A/	-yąc	-jąc	2d\	-yąc	-jąc	2f/	-iąc	-jąc
2E\	po-	po-	2G/	po-	po-	2.c/	po-	po-	1e	po-	po-
1F	-czę-	-czą-	1A	-czą-	-czą-	.	.	.	.	.	.
.	.	.	.	.	.	4B/	-czą-	.	.	.	.
.	.	.	.	.	.	2A/	-tek	-czą-	2d/	-czą-	-czą-
=3-	=3-	=3-	=3-	=3-	=3-	=3-	=3-	=3-	=3-	=3-	=3-
2E\	-tek	-tek	2B\	-tek	-tek	2G/	ży-	-tek	2e/	-tek	-tek
2E\	ży-	ży-	2c\	żi-	ży-	2g\	-wo-	ży-	2e/	ży-	ży-
1D	-wo-	-wo-	2.d\	-wo-	-wo-	1f	-wo-	-wo-	1a	-wo-	-wo-
.	.	.	4c\	.	.	.	.	.	.	.	.
=4-	=4-	=4-	=4-	=4-	=4-	=4-	=4-	=4-	=4-	=4-	=4-
!	!	!	!	!	!	!	!	!	!LO:SIC:s=2g#i	!	!
2E\	-tá	-ta	2B/	-tá	-ta	2e\	-tá	-ta	2g/	-tá	-ta
2F\	ná-	na-	2A/	ná-	na-	2d\	na-	na-	1a	ná-	na-
!LO:TX:t=P:problem:błędnie custos:E zamiast cutos:AA	!	!	!	!	!	!	!	!	!	!	!
1E	-ſſe-	-sze-	1B	-ſſe-	-sze-	1e	-ſſe-	-sze-	.	.	.
!	!	!	!	!	!	!	!	!	!LO:SIC:s=2g#i	!	!
.	.	.	.	.	.	.	.	.	2g/	-ſſe-	-sze-
*custos:E	*	*	*	*	*	*	*	*	*	*	*
=5-	=5-	=5-	=5-	=5-	=5-	=5-	=5-	=5-	=5-	=5-	=5-
!LO:LB:g=original	!	!	!	!	!	!	!	!	!	!	!
*xywh-#6:2776,1313,1943,797	*	*	*	*	*	*	*	*	*	*	*
1AA	-go/	-go	1A	-go/	-go	1e	-go	-go	1a	-go,	-go
*	*	*	*	*	*	*custos:e	*	*	*custos:a	*	*
!LO:SIC:s=2r	!	!	!	!	!	!LO:LB:g=original	!	!	!LO:LB:g=original	!	!
*	*	*	*	*	*	*xywh-#5:2795,1316,1867,767	*	*	*xywh-#5:751,1387,1959,704	*	*
2ryy	.	.	2r	.	.	2r	.	.	2r	.	.
2A\	I	i	2c\	I	i	2e\	y	i	2a\	y	i
*	*	*	*custos:A	*	*	*	*	*	*	*	*
=6-	=6-	=6-	=6-	=6-	=6-	=6-	=6-	=6-	=6-	=6-	=6-
!	!	!	!LO:LB:g=original	!	!	!	!	!	!	!	!
*	*	*	*xywh-#6:735,1273,1962,773	*	*	*	*	*	*	*	*
2D/	yá-	ja-	2A/	yá-	ja-	2f\	yá-	ja-	2a\	yá-	ja-
2F\	-kye	-kie	2A/	-kie	-kie	2d\	-kye	-kie	2a\	-kye	-kie
2E\	p[o]-	po-	2B\	po-	po-	2e\	po-	po-	2g/	po-	po-
!LO:SIC:s=2AA	!	!	!	!	!	!	!	!	!	!	!
2C/	-tem	-tem	1c\	-tem	-tem	2e\	-tem	-tem	2e/	-tem	-tem
=7-	=7-	=7-	=7-	=7-	=7-	=7-	=7-	=7-	=7-	=7-	=7-
1D	ma	ma	.	.	.	1d	ma	ma	1f	ma	ma
.	.	.	2B\	ma	ma	.	.	.	.	.	.
2C/	być	być	2c\	być	być	2g\	być	być	2e/	być	być
2F\	do-	do-	2A/	do-	do-	2f\	do-	do-	2a\	do-	do-
=8-	=8-	=8-	=8-	=8-	=8-	=8-	=8-	=8-	=8-	=8-	=8-
2G\	-koń-	-koń-	2B\	-koń-	-koń-	2d\	-koń-	-koń-	2g/	-koń-	-koń-
1F	-cze-	-cze-	1c	-cze-	-cze-	1f	-cze-	-cze-	1a	-cze-	-cze-
2G\	-nie/	-nie	2B\	.	-nie	2d\	-nye	-nie	1g\	-nie,	-nie
*custos:D	*	*	*	*	*	*	*	*	*	*	*
=9-	=9-	=9-	=9-	=9-	=9-	=9-	=9-	=9-	=9-	=9-	=9-
!LO:LB:g=original	!	!	!	!	!	!	!	!	!	!	!
*xywh-#6:2745,2043,1943,649	*	*	*	*	*	*	*	*	*	*	*
1D	ye-	je-	1A	-nye	je-	1d	ie-	je-	.	.	.
*	*	*	*	*	*	*	*	*	*custos:f	*	*
!	!	!	!	!	!	!	!	!	!LO:LB:g=original	!	!
*	*	*	*	*	*	*	*	*	*xywh-#5:774,2014,1942,595	*	*
!	!	!	!	!	!	!	!	!	!LO:SIC:s=2f#i	!	!
.	.	.	.	.	.	.	.	.	2f/	ie-	je-
2GG/	-go	-go	2G/	ye-	-go	2B/	-go/	-go	2g/	-go/	-go
*	*	*	*	*	*	*custos:d	*	*	*	*	*
!	!	!	!	!	!	!LO:LB:g=original	!	!	!	!	!
*	*	*	*	*	*	*xywh-#5:2778,1980,1896,693	*	*	*	*	*
2G\	yáw-	jaw-	2G/	-go/	jaw-	2d\	yaw-	jaw-	2g/	yáw-	jaw-
=10-	=10-	=10-	=10-	=10-	=10-	=10-	=10-	=10-	=10-	=10-	=10-
2F\	-nie	-nie	2c\	yáw-	-nie	2f\	-nye	-nie	2a\	-nie	-nie
2A\	to	też	2c\	-nie	też	2e\	też	też	2a\	też	też
*	*	*	*custos:d	*	*	*	*	*	*	*	*
!	!	!	!LO:LB:g=original	!	!	!	!	!	!	!	!
*	*	*	*xywh-#6:745,1976,1948,639	*	*	*	*	*	*	*	*
2G\	wſſi-	wszy-	2d\	też	wszy-	2g\	wſſi-	wszy-	2b\	wſſy-	wszy-
2C/	-ſcy	-scy	2e\	wſſi-	-scy	2g\	-ſcy	-scy	1cc\	-ſcy	-scy
=11-	=11-	=11-	=11-	=11-	=11-	=11-	=11-	=11-	=11-	=11-	=11-
1G	wye-	wie-	1d	-ſci	wie-	1g	wie-	wie-	.	.	.
.	.	.	.	.	.	.	.	.	2b\	wie-	wie-
2C/	.	-my	2c\	wie-	-my	2e\	.	-my	2cc\	-(my)	-my
*	*	*	*	*	*	*	*	*	*custos:cc	*	*
!	!	!	!	!	!	!	!	!	!LO:LB:g=original	!	!
*	*	*	*	*	*	*	*	*	*xywh-#5:763,2565,1925,699	*	*
2F\	-(my)	ja-	2A/	-my	ja-	2f\	-(my)	ja-	2cc\	yá-	ja-
*	*	*	*	*	*	*custos:d	*	*	*	*	*
=12-	=12-	=12-	=12-	=12-	=12-	=12-	=12-	=12-	=12-	=12-	=12-
!	!	!	!	!	!	!LO:LB:g=original	!	!	!	!	!
*	*	*	*	*	*	*xywh-#5:2762,2595,1896,813	*	*	*	*	*
2G\	yá-	.	2B\	yá-	.	2d\	yá-	.	2b\	-ko	.
2E\	-ko	-ko	2c\	-ko	-ko	2e\	-ko	-ko	2g/	tu	-ko
*custos:D	*	*	*	*	*	*	*	*	*	*	*
!LO:LB:g=original	!	!	!	!	!	!	!	!	!	!	!
*xywh-#6:2750,2635,1938,783	*	*	*	*	*	*	*	*	*	*	*
1D	tu	tu	2.d\	tu	tu	1f	tu	tu	2b\	w nyem	tu
.	.	.	.	.	.	.	.	.	2a\	.	.
.	.	.	4c\	.	.	.	.	.	.	.	.
=13-	=13-	=13-	=13-	=13-	=13-	=13-	=13-	=13-	=13-	=13-	=13-
!	!	!	!	!	!	!	!	!	!LO:SIC:s=2g#i	!	!
2E\	w niem	w_niem	2B\	w	w_niem	2e\	w niem	w_niem	2g/	ży-	w_niem
*	*	*	*custos:A	*	*	*	*	*	*	*	*
!	!	!	!LO:LB:g=original	!	!	!	!	!	!	!	!
*	*	*	*xywh-#6:740,2559,1962,673	*	*	*	*	*	*	*	*
2F\	ży-	ży-	2A/	 niem	ży-	2d\	ży-	ży-	1a	-wye-	ży-
1E	-wie-	-wie-	1B	ży-	-wie-	1e	-wye-	-wie-	.	.	.
!	!	!	!	!	!	!	!	!	!LO:SIC:s=2g#i	!	!
.	.	.	.	.	.	.	.	.	2g/	.	-wie-
=14-	=14-	=14-	=14-	=14-	=14-	=14-	=14-	=14-	=14-	=14-	=14-
!LO:SIC:s=0AA;	!	!	!LO:SIC:s=0A;	!	!	!LO:SIC:s=0e;	!	!	!LO:SIC:s=0a;	!	!
0AAl/	-my.	-my.	0Al/	-wyemy.	-my.	0el\	-my.	-my.	0al\	-my.	-my.
!	!	!	!	!	!	!LO:TX:b:t=C.S.:mod=	!	!	!LO:TX:b:t=CS:mod=	!	!
==	==	==	==	==	==	==	==	==	==	==	==
*-	*-	*-	*-	*-	*-	*-	*-	*-	*-	*-	*-
!!!system-decoration: [(*)]
!!LO:MO:ori
!!!RDF**kern: l = terminal long
!!LO:MO:mod
!! !!!RDF**kern: i = editorial accidental
!!LO:MO:end
!!!filter-modern: shed -e "s/TX(.*):t=P:/tx$1:t=P:/LG" | shed -e "s/^custos:/Xcustos:/I" | sic -sq | modori -m | autostem -r | tie -s | humtr -p | shed -e "s/-//B"
!!!ENC: Mateusz Solarz
!!!END: 2022-04-27
!!!ENC: Katarzyna Serwa
!!!END: 2022-05-11
!!!ENC-modern: Andrzej Kubiczek
!!!END-modern: 2022-07-24
!!!IIIF: https://polona.pl/iiif/item/MTE3MTQ4Ng/manifest.json
!!!ENC-iiif: Emilia Ziętek
!!!END-iiif: 2022-09-03
!!!YEC: Copyright 2022 Narodowy Instytut Fryderyka Chopina (https://polishscores.org)
!!!YEM: Licence CC BY 4.0 (https://creativecommons.org/licenses/by/4.0)
